X:1
T:Sub tuum praesidium - Gounod
T:James Gibb editions
T:#
%%score [ 1 2 ] { ( 3 4 ) | ( 5 6 ) }
L:1/8
Q:1/4=100
M:4/4
K:Bb
V:1 treble nm="Soprano" snm="S"
V:2 treble nm="Alto" snm="A"
V:3 treble nm="Accomp."
V:4 treble 
V:5 bass 
V:6 bass 
V:1
"^andantino""^Sub tuum praesidium""^Charles Gounod\n ( 1818-93 )" z8 | z8 | z8 | z8 | %4
w: ||||
!p! d3 d d2 d2 | f3 d B4- | B2 B2 e3 d | d6 z2 |[M:4/4] d4 c4 | e4 d4 | (f2 e2) (d2 c2) | %11
w: Sub tu- um prae-|si- di- um|* con- fu- gi-|mus,|San- cta,|San- cta|De\- * i *|
 B3 A A2 z2 | c4 c4 | d4 d4 | g2 =e2 c2 B2 | B4 A2 z2 | d4 c4 | c3 =B B4 | f4 (=e2 d2) | d3 c c4 | %20
w: Ge- ni- trix:|no- stras,|no- stras|de- pre- ca- ti-|o- nes|ne de-|spi- ci- as,|ne de\- *|spi- ci- as,|
 c2 c2 _d2 f2 | f4 c2 B2 | (A4 G4) | F2 A2 A2 A2 | B3 B c4 | A4 A4 | B3 B B2 c2 | A4 A4 | B4 d4 | %29
w: in ne- ces- si-|ta- ti- bus|no\- *|stris; sed a pe-|ri- cu- lis|cun- ctis|li- be- ra nos|sem- per,|Vir- go,|
 (d2 c2) (f2 e2) | d6 d2 | d4 e2 z2 | B4 B2 c2 | d4 B2 z2 | (d2 f2) B2 e2 | (d4 c4) | B2 z2 z4 | %37
w: Vir\- * go *|glo- ri-|o- sa|et be- ne-|di- cta,|et * be- ne-|di\- *|cta.|
 B3 B B2 B2 | B3 B B4- | B2 B2 c3 B | B8 | B4 B4 | d4 B4 | B6 B2 | B8 |] %45
w: Sub tu- um prae-|si- di- um|* con- fu- gi-|mus,|San- cta|De- i|Ge- ni-|trix.|
V:2
 z8 | z8 | z8 | z8 |!p! B3 B B2 B2 | _A3 A A4 | G4 _G3 F | F6 z2 |[M:4/4] B6 A2 | c6 B2 | %10
w: ||||Sub tu- um prae-|si- di- um|con- fu- gi-|mus,|San- cta,|San- cta|
 (A2 G2) (F2 E2) | D3 C C2 z2 | A4 A4 | B4 B4 | B2 B2 A2 G2 | G4 F2 z2 | F4 F4 | F3 F F4 | %18
w: De\- * i *|Ge- ni- trix:|no- stras,|no- stras|de- pre- ca- ti-|o- nes|ne de-|spi- ci- as,|
 _A4 (G2 F2) | F3 =E E4 | F2 F2 F2 F2 | F4 F2 F2 | (F4 =E4) | F2 F2 F2 F2 | _G3 G _E4 | F4 F4 | %26
w: ne de\- *|spi- ci- as,|in ne- ces- si-|ta- ti- bus|no\- *|stris; sed a pe-|ri- cu- lis|cun- ctis|
 _G3 G G2 E2 | F4 F4 | D4 B4 | (B2 A2) (d2 c2) | (B4 A2) _A2 | _A4 G2 z2 | G4 G2 A2 | B4 G2 z2 | %34
w: li- be- ra nos|sem- per,|Vir- go,|Vir\- * go *|glo\- * ri-|o- sa|et be- ne-|di- cta,|
 (B2 _A2) G2 _G2 | (F4 E4) | D2 z2 z4 | B,3 B, B,2 B,2 | B,3 B, B,4- | B,2 B,2 C3 B, | B,8 | %41
w: et * be- ne-|di\- *|cta.|Sub tu- um prae-|si- di- um|* con- fu- gi-|mus,|
 B,4 B,4 | D4 B,4 | B,6 B,2 | B,8 |] %45
w: San- cta|De- i|Ge- ni-|trix.|
V:3
!mf!"^andantino" [FBd]4 [EBe]4 | [FBf]4 B2 e2 | [Fd]4 [Ec]4 | [DB]6 z2 |!p! x8 | x8 | G4 _G4 | x8 | %8
[M:4/4] d4 c4 | e4 d4 | [Af]2 [Ge]2 [Fd]2 [Ec]2 | [DB]4 [CA]2 z2 | [Ac]8 | [Bd]8- | %14
 [Bg]2 [B=e]2 [Ac]2 [GB]2 | [GB]4 [FA]2 x2 | [Bd]4 [Ac]4 | c4 =B4 | [_Af]4 [G=e]2 [Fd]2 | %19
 [Fd]4 [=Ec]4 | c4 _d4 | c6 B2 | [FA]4 [=EG]4 | F2 [FA]2 [FA]2 [FA]2 | [_GB]4 [_Ec]4 | [FA]8 | %26
 [_GB]6 [Ec]2 | [FA]8 | B4 d4 | d2 c2 f2 e2 | d8- | [_Ad]4 [Ge]2 z2 | [GB]6 [=Ac]2 | %33
 [Bd]4 [GB]2 z2 | [Bd]2 [_Af]2 [GB]2 [_Ge]2 | [Fd]4 [Ec]4 | [DB]2 z2 z4 | [GB]8- | [FB]8 | [EB]8 | %40
 [FB]8 | [GB]8 | [FB]8 | [E_G]8 | [DF]8 |] %45
V:4
 x8 | x8 | x8 | x8 | [B,DF]8- | [B,DF_A]8 | [B,E]8 | [B,DF]8 |[M:4/4] B6 =A2 | c6 B2 | x8 | x8 | %12
 x8 | x8 | x8 | x6 F2- | F8 | [F_A]8 | x6 x2 | x6 x2 | F8 | F8 | x6 x2 | x6 x2 | x6 x2 | x8 | x8 | %27
 x8 | F8- | F8 | F2 B2 A2 _A2 | x6 x2 | x6 x2 | x6 x2 | x6 x2 | x8 | x8 | x8 | x6 x2 | x6 x2 | %40
 x6 x2 | x6 x2 | x6 x2 | x6 x2 | x6 x2 |] %45
V:5
!mf! x8 | B,4 B,4 | x8 | x8 |!p! x8 | x8 | x8 | x8 |[M:4/4][K:bass] x8 | x8 | x8 | x8 | x8 | x8 | %14
 C8- | [F,C]6 z2 | B,4 C4 | D8 | [G,=B,]8 | [C,_B,]8 | x8 | A,4- A,2 B,2 | C4 B,4 | x8 | x8 | x8 | %26
 x8 | x8 | x4 B,4- | B,2 A,2 D2 C2 | x8 | x8 | x8 | x8 | B,8- | B,6 A,2 | B,8- | B,8 | %38
 B,2 B,2 B,2 B,2 | B,8- | B,2 B,2 B,2 B,2 | B,8- | B,2 B,2 B,2 B,2 | B,8- | B,8 |] %45
V:6
 [B,D]4 [G,B,]4 | D,4 E,2 C,2 | [F,A,]8 | [B,,F,B,]6 z2 | B,,8- | B,,8 | B,,8 | B,,2 D,2 F,2 B,2 | %8
[M:4/4][K:bass] z2 =E2 F4- | F2 ^F2 G4 | z2 C,2 D,2 E,2 | F,6 z2 | z2 F,2 =E,2 F,2 | %13
 z2 F,2 =E,2 F,2 | z2 C,2 D,2 =E,2 | x8 | x6 x2 | x6 x2 | x6 x2 | x6 x2 | A,4 [G,B,]4 | A,4 _D,4 | %22
 C,8 | [F,A,]2 z2 z4 | z8 | z2 [F,A,]2 [F,A,]2 [F,A,]2 | [_G,B,]6 [E,C]2 | [F,A,]8 | [B,D]4 D,4 | %29
 F,8 | B,8- | [E,B,]6 z2 | z8 | z8 | B,2 D,2 E,2 C,2 | F,8 | B,,2 B,,2 B,,2 B,,2 | E,8 | D,8 | %39
 C,8 | D,8 | E,8 | D,8 | E,8 | [B,,F,]8 |] %45

